X: 1
T: Jer Quigley's
M: 4/4
L: 1/8
R: reel
K: Emin
A2|:&quot;^em&quot;BeeA Beed|Beed&quot;G&quot;BAAG|FAAB BAFA|
&quot;D&quot;FDDE&quot;^hm&quot;FBBc|&quot;^em&quot;BeeA Beed|
Beed&quot;D&quot;BAAF|&quot;G&quot;G2GB GABA|&quot;D&quot;AGFG&quot;^em&quot;E2:|
FA|:&quot;^em&quot;Beef edBA| (3Bcd ef&quot;A&quot;gefe|
&quot;D&quot;d2ce dcBA|&quot;^em&quot; (3Bcd ef&quot;A&quot;gefe|&quot;^em&quot;Beef edBA|
(3Bcd ef gedB|&quot;G&quot;G2GB GABA|&quot;D&quot;AGFG&quot;^em&quot;E2:|
